Numix-GalliumOS/32/categories/applications-libraries.svg

<?xml version="1.0" encoding="UTF-8" standalone="no"?>
<svg
   xmlns:dc="http://purl.org/dc/elements/1.1/"
   xmlns:cc="http://creativecommons.org/ns#"
   xmlns:rdf="http://www.w3.org/1999/02/22-rdf-syntax-ns#"
   xmlns:svg="http://www.w3.org/2000/svg"
   xmlns="http://www.w3.org/2000/svg"
   xmlns:sodipodi="http://sodipodi.sourceforge.net/DTD/sodipodi-0.dtd"
   xmlns:inkscape="http://www.inkscape.org/namespaces/inkscape"
   width="32"
   height="32"
   viewBox="0 0 32 32"
   id="svg2"
   version="1.1"
   inkscape:version="0.91 r"
   sodipodi:docname="applications-libraries.svg">
  <metadata
     id="metadata16">
    <rdf:RDF>
      <cc:Work
         rdf:about="">
        <dc:format>image/svg+xml</dc:format>
        <dc:type
           rdf:resource="http://purl.org/dc/dcmitype/StillImage" />
      </cc:Work>
    </rdf:RDF>
  </metadata>
  <defs
     id="defs14" />
  <sodipodi:namedview
     pagecolor="#ffffff"
     bordercolor="#666666"
     borderopacity="1"
     objecttolerance="10"
     gridtolerance="10"
     guidetolerance="10"
     inkscape:pageopacity="0"
     inkscape:pageshadow="2"
     inkscape:window-width="1680"
     inkscape:window-height="1026"
     id="namedview12"
     showgrid="true"
     inkscape:zoom="20.85965"
     inkscape:cx="11.412643"
     inkscape:cy="9.5327857"
     inkscape:window-x="0"
     inkscape:window-y="24"
     inkscape:window-maximized="1"
     inkscape:current-layer="svg2">
    <inkscape:grid
       type="xygrid"
       id="grid4144" />
  </sodipodi:namedview>
  <path
     style="fill:#b2a445"
     d="M 4.78125,3 C 4.3481842,3 4,3.3679201 4,3.8300781 L 4,28.169922 C 4,28.632081 4.3481842,29 4.78125,29 l 4.4335938,0 C 9.6516107,29 10,28.632081 10,28.169922 L 10,3.8300781 C 10,3.3679201 9.6516106,3 9.2148438,3 Z M 5,5 9,5 9,15 5,15 Z m 2,17.5 c 0.8284271,0 1.5,0.671573 1.5,1.5 0,0.828427 -0.6715729,1.5 -1.5,1.5 -0.8284271,0 -1.5,-0.671573 -1.5,-1.5 0,-0.828427 0.6715729,-1.5 1.5,-1.5 z"
     id="path6"
     inkscape:connector-curvature="0"
     sodipodi:nodetypes="ssssssssscccccsssss" />
  <path
     style="fill:#b2a445"
     d="M 12.693359,3 C 12.310693,3 12,3.3679201 12,3.8300781 L 12,28.169922 C 12,28.632081 12.310693,29 12.693359,29 l 2.609375,0 C 15.69194,29 16,28.632081 16,28.169922 L 16,3.8300781 C 16,3.3679201 15.69194,3 15.302734,3 Z M 13,5 l 2,0 0,10 -2,0 z m 1,18 c 0.552285,0 1,0.447715 1,1 0,0.552285 -0.447715,1 -1,1 -0.552285,0 -1,-0.447715 -1,-1 0,-0.552285 0.447715,-1 1,-1 z"
     id="path8"
     inkscape:connector-curvature="0"
     sodipodi:nodetypes="ssssssssscccccsssss" />
  <path
     style="fill:#b2a445"
     d="m 17.465405,3.8755328 c -0.462033,0.1236988 -0.742414,0.5793477 -0.622799,1.025388 l 6.299615,23.4909962 c 0.119616,0.446041 0.590446,0.700569 1.052479,0.576871 l 3.150578,-0.843495 c 0.469931,-0.125814 0.746188,-0.580357 0.626572,-1.026399 L 21.672235,3.6078982 C 21.55262,3.1618579 21.085913,2.9062246 20.615983,3.0320378 Z m 0.645925,1.8959046 2.897777,-0.7758136 2.588191,9.6512522 -2.897778,0.775813 z m 5.978222,16.5017836 c 0.800199,-0.214235 1.622704,0.260245 1.837117,1.059781 0.214413,0.799536 -0.260461,1.62136 -1.06066,1.835594 -0.800199,0.214236 -1.622705,-0.260245 -1.837117,-1.05978 -0.214413,-0.799536 0.260461,-1.621359 1.06066,-1.835595 z"
     id="path8-1"
     inkscape:connector-curvature="0"
     sodipodi:nodetypes="ssssssssscccccsssss" />
</svg>

<svg xmlns="http://www.w3.org/2000/svg" viewBox="0 0 32 32">
 <path d="m 4.781 3 c -0.433 0 -0.781 0.368 -0.781 0.83 l 0 24.34 c 0 0.462 0.348 0.83 0.781 0.83 l 4.434 0 c 0.437 0 0.785 -0.368 0.785 -0.83 l 0 -24.34 c 0 -0.462 -0.348 -0.83 -0.785 -0.83 m -4.215 2 4 0 0 10 -4 0 m 2 7.5 c 0.828 0 1.5 0.672 1.5 1.5 0 0.828 -0.672 1.5 -1.5 1.5 -0.828 0 -1.5 -0.672 -1.5 -1.5 0 -0.828 0.672 -1.5 1.5 -1.5 z" style="fill:#b2a445"/>
 <path d="m 12.693 3 c -0.383 0 -0.693 0.368 -0.693 0.83 l 0 24.34 c 0 0.462 0.311 0.83 0.693 0.83 l 2.609 0 c 0.389 0 0.697 -0.368 0.697 -0.83 l 0 -24.34 c 0 -0.462 -0.308 -0.83 -0.697 -0.83 m -2.303 2 l 2 0 0 10 -2 0 z m 1 18 c 0.552 0 1 0.448 1 1 0 0.552 -0.448 1 -1 1 -0.552 0 -1 -0.448 -1 -1 0 -0.552 0.448 -1 1 -1 z" style="fill:#b2a445"/>
 <path d="m 17.465 3.876 c -0.462 0.124 -0.742 0.579 -0.623 1.025 l 6.3 23.491 c 0.12 0.446 0.59 0.701 1.052 0.577 l 3.151 -0.843 c 0.47 -0.126 0.746 -0.58 0.627 -1.026 l -6.3 -23.491 c -0.12 -0.446 -0.586 -0.702 -1.056 -0.576 m -2.505 2.739 2.898 -0.776 2.588 9.651 -2.898 0.776 z m 5.978 16.502 c 0.8 -0.214 1.623 0.26 1.837 1.06 0.214 0.8 -0.26 1.621 -1.061 1.836 -0.8 0.214 -1.623 -0.26 -1.837 -1.06 -0.214 -0.8 0.26 -1.621 1.061 -1.836 z" style="fill:#b2a445"/>
</svg>
